X:74
T:Bob Tail Hoss
S:American Veteran Fifer #74
C:Donated by Thos. B. Jobe, Bugler Co.M.8th O.V.C.
M:2/4
L:1/8
Q:1/8=180
K:A 
%%MIDI program 72
%%MIDI transpose 8
%%MIDI ratio 3 1
|: e | fe c/c/e/e/ | fec z/A/ | cB z>A | cBce |
fe c/c/e/e/ | fec z/A/ | BB c>B | A3 :|
E | A2 c>e | a3 a | ff a>f | e3 e |
fe c/c/e/e/ | fe c>A | BB c>B | A3 :|


